X:26
T:Quick Step from Newark,2voices. JGi.026
M:6/8
L:1/8
Q:1/4=110
S:Joshua Gibbons MS,1823,Tealby,Lincs.
R:quick step
O:Tealby,Lincolnshire
Z:VMP/R.Greig, 2009
K:F
[V:1]|:c|cff f2f|egg g2b|abc’ c’ba|agg g2c|
[V:2]|:F|FAAA2A|ceee2g|fga agf|feee2z|
[V:1]cff f2f|egg g2b|ac’f gae|{e}f2ff2:|
[V:2]FAAA2A|ceee2g|f2fc2c|A2AA2:|
[V:1]|:a|agzz2a|agzz2f|fdc dc=B|c2cc2a|
[V:2]|:f|fezz2f|fezz2d|c2cG2G|E2EE2f|
[V:1]agzz2a|agzz2f|edc dc=B|c2cc2c|
[V:2]fezz2f|fezz2d|c3G3|E2EE2A|
[V:1]f2ff2_e|d2d dcB|g2ac’2f|e2dc2c|
[V:2]A2AA2G|B2BBcd|e2fg2d|c2GE2c|
[V:1]ega gab|a2bc’2b|agf gfe|f2ff2:|
[V:2]Acf efg|f2ga2g|fBA BAG|A2″End”AA2:|

